X:1
T:Whale Fishing Song
M:4/4
L:1/8
K:C
 EE| E2 A2 A2 A2| cc BG A2 AA| ee ee d2 B2| A4 z2 cd| e2 e3/2 c/2 d2 BB|\
 c3/2 c/2 BA G2 AB| c2 c2 B2 BB| A2 G2 E2 cc| e2 e2 d2 BB| A4 z2|
